X:3111
L:1/8
M:6/8
K:D
 d |"D" A>AA A<FA |"D" d2 e f2 a |"G" g2 e"D" f2 d |"G" efd"A" B2 d |"D" A>AA A<FA |"D" d2 e f2 g | 
"D" afd"A" e>fe |1"D" d3 dcB :|2"D" d3 def |:"G" gdg gag |"D" fdf fgf |"A" ede efg | 
"D" fed"A" B2 d |"D" A>AA A<FA |"D" d2 e f2 g |"D" afd"A" e>fe |1"D" d3 def :|"D" d3 D3 ||

